icons/home-gear-line.svg

<svg xmlns="http://www.w3.org/2000/svg" width="24" height="24" fill="none"><g clip-path="url(#a)"><g><path fill="#121212" d="M19 21H5C4.73478 21 4.48043 20.8947 4.29289 20.7071C4.10536 20.5196 4 20.2653 4 20V11H1L11.327 1.61204C11.5111 1.44452 11.7511 1.35168 12 1.35168C12.2489 1.35168 12.4889 1.44452 12.673 1.61204L23 11H20V20C20 20.2653 19.8946 20.5196 19.7071 20.7071C19.5196 20.8947 19.2652 21 19 21ZM6 19H18V9.15704L12 3.70304L6 9.15704V19ZM8.591 13.809C8.46429 13.2758 8.46429 12.7203 8.591 12.187L7.6 11.615L8.6 9.88304L9.591 10.456C9.98885 10.079 10.4698 9.80087 10.995 9.64404V8.50004H12.995V9.64404C13.527 9.80304 14.005 10.084 14.399 10.456L15.39 9.88304L16.39 11.614L15.399 12.187C15.5257 12.7203 15.5257 13.2758 15.399 13.809L16.39 14.381L15.39 16.112L14.399 15.54C14.001 15.9167 13.5201 16.1945 12.995 16.351V17.496H10.995V16.35C10.4699 16.1935 9.98896 15.9157 9.591 15.539L8.6 16.111L7.6 14.381L8.591 13.808V13.809ZM11.995 14.497C12.1965 14.5044 12.3973 14.4711 12.5856 14.3991C12.7739 14.327 12.9458 14.2178 13.0909 14.0779C13.236 13.938 13.3514 13.7702 13.4303 13.5847C13.5091 13.3992 13.5498 13.1996 13.5498 12.998C13.5498 12.7964 13.5091 12.5969 13.4303 12.4114C13.3514 12.2259 13.236 12.0581 13.0909 11.9182C12.9458 11.7783 12.7739 11.669 12.5856 11.597C12.3973 11.525 12.1965 11.4917 11.995 11.499C11.6069 11.5132 11.2395 11.6774 10.9699 11.9569C10.7004 12.2365 10.5498 12.6097 10.5498 12.998C10.5498 13.3864 10.7004 13.7596 10.9699 14.0392C11.2395 14.3187 11.6069 14.4829 11.995 14.497Z"/></g></g><defs><clipPath id="a"><rect width="24" height="24" fill="white"/></clipPath></defs></svg>

<svg width="24" height="24" fill="none" xmlns="http://www.w3.org/2000/svg"><g clip-path="url(#a)"><path d="M19 21H5a1 1 0 0 1-1-1v-9H1l10.327-9.388a1 1 0 0 1 1.346 0L23 11h-3v9a1 1 0 0 1-1 1ZM6 19h12V9.157l-6-5.454-6 5.454V19Zm2.591-5.191a3.508 3.508 0 0 1 0-1.622l-.991-.572 1-1.732.991.573a3.495 3.495 0 0 1 1.404-.812V8.5h2v1.144c.532.159 1.01.44 1.404.812l.991-.573 1 1.731-.991.573a3.508 3.508 0 0 1 0 1.622l.991.572-1 1.731-.991-.572a3.494 3.494 0 0 1-1.404.811v1.145h-2V16.35a3.494 3.494 0 0 1-1.404-.811l-.991.572-1-1.73.991-.573v.001Zm3.404.688a1.5 1.5 0 1 0 .11-2.997 1.5 1.5 0 0 0-.11 2.997Z" /></g><defs><clipPath id="a"><path fill="#fff" d="M0 0h24v24H0z"/></clipPath></defs></svg>
